X:1
T:Title
%%score 1 { 2 | 3 }
L:1/8
Q:1/4=150
M:3/4
K:Bb
V:1 treble nm="Grand Piano, Soprano"
V:2 bass nm="Choir Pad, Nowell: Hail, Gentle King"
V:3 bass 
V:1
 [B,D]6- | [B,D]6 | [B,D]6 | [B,D]6- | [B,D]6 | [B,D]6 | [B,D]6- | [B,D]6 | [B,D]6 | %9
w: By~Walter~Maristow|||||||||
[Q:1/4=130] [DF]6 | [DB]3 [Fc]3 | [DB]6 |[Q:1/4=120] [FB]2 [Fc]2 [Fd]2 | F4 [CE]2 | [B,D]6 | %15
w: ||||||
 [FB]2 [Fc]2 [Fd]2 | F4 [CE]2 | D4 D2 | [DF]4 [CE]2 | [B,D]6 | [A,C]6 | [CF]2 [CG]2 [FA]2 | %22
w: |||||||
 [FB]4 [FB]2 | [Gc]4 [Gc]2 | [Fd]4 [Fd]2 | [Ee]6 | [Fd]2 [Fc]2 [FB]2 | [EG]4 [EG]2 | [DG]6 | %29
w: |||||||
 [FA]6 | [FB]6- | [FB]2 z2 z2 |] %32
w: |||
V:2
 G,2 F,2 E,2 | F,6 | F,6 | G,2 F,2 E,2 | F,6 | F,6 | G,2 F,2 E,2 | F,6 | F,6 | B,6 | B,3 A,3 | %11
 B,6 | D2 E2 D2 | C4 A,2 | B,6 | D2 E2 D2 | C4[K:bass] A,2 | B,4 B,2 | G,4 G,2 | F,6 | F,6 | %21
 A,2 B,2 C2 | B,4 B,2 | B,4 B,2 | B,4 B,2 | B,6 | B,2 A,2 B,2 | B,4[K:treble] C2 | B,6 | C6 | D6- | %31
 D2 z2 z2 |] %32
V:3
 z6 | B,,6 | B,,6 | z6 | B,,6 | B,,6 | z6 | B,,6 | B,,6 | z6 | G,3 F,3 | B,,6 | z2 C2 B,2 | %13
 A,4 F,2 | z6 | z2 C2 B,2 | A,4 F,2 | G,4 G,2 | C,4 E,2 | z6 | z6 | F,2 F,2 E,2 | D,4 D,2 | %23
 E,4 E,2 | F,4 F,2 | G,6 | F,2 E,2 D,2 | E,4 C,2 | G,6 | F,6 | B,,6- | B,,2 z2 z2 |] %32

